X: 23446
T: Let It Jig, Let It Jig, Let It
R: jig
M: 6/8
K: Gmajor
|:ABc d2c|B2A ~G3|EFG A2^G|A2G A2G|
AB/c/d e2d|c2B ~A3|gfe d2c|B2A G3:|
K: Dmaj
|:EFG ABA|F2d A3|~G3 ~F3|~E3 AGF|
EFG ABA|F2d A3|Bcd dcB|cde d3:|

